X: 092
T: Heigh Ho
%R: reel
M: C|
L: 1/8
Z: 2014 John Chambers <jc:trillian.mit.edu>
B: Chas & Sam Thompson "Twenty Four Country Dances for the Year 1802", London 1802, p.9 #2
F: http://folkopedia.efdss.org/images/4/41/Thompson_24_1802.PDF
K: D
|:\
fgaf edda | bged cAA2 |\
fgaf gbeg | fedc d2d2 :|
|:\
ecAg fafd | ecAg fga2 |\
bgeb afda | gedc d2d2 :|
% - - - - - - - - - - - - - - - - - - - - - - - - -
%%begintext align
%% Whole figure with the top Cu: lead down
%% the Middle up again and turn your
%% Partner.
%%endtext
% - - - - - - - - - - - - - - - - - - - - - - - - -

%%sep 1 1 500
%%sep 1 1 500
